packages/nodes-base/nodes/ItemLists/itemLists.svg

<svg xmlns="http://www.w3.org/2000/svg" xml:space="preserve" width="60" height="60" viewBox="0 0 210 210"><path d="M18.8 18.8C8.4 18.8 0 27.1 0 37.5s8.4 18.8 18.8 18.8 18.8-8.4 18.8-18.8-8.5-18.7-18.8-18.7m0 62.4C8.4 81.2 0 89.6 0 100s8.4 18.8 18.8 18.8 18.8-8.4 18.8-18.8-8.5-18.8-18.8-18.8m0 62.6C8.4 143.8 0 152.1 0 162.5s8.4 18.8 18.8 18.8 18.8-8.4 18.8-18.8-8.5-18.7-18.8-18.7m175 6.2h-125c-3.5 0-6.2 2.8-6.2 6.2v12.5c0 3.5 2.8 6.2 6.2 6.2h125c3.5 0 6.2-2.8 6.2-6.2v-12.5c0-3.4-2.8-6.2-6.2-6.2m0-125h-125c-3.5 0-6.2 2.8-6.2 6.2v12.5c0 3.5 2.8 6.2 6.2 6.2h125c3.5 0 6.2-2.8 6.2-6.2V31.2c0-3.4-2.8-6.2-6.2-6.2m0 62.5h-125c-3.5 0-6.2 2.8-6.2 6.2v12.5c0 3.5 2.8 6.2 6.2 6.2h125c3.5 0 6.2-2.8 6.2-6.2V93.8c0-3.5-2.8-6.3-6.2-6.3" style="fill:#ff6d5a"/></svg>

<?xml version="1.0" encoding="utf-8"?>
<!-- Generator: Adobe Illustrator 24.2.1, SVG Export Plug-In . SVG Version: 6.00 Build 0)  -->
<svg version="1.1" id="Layer_1" focusable="false" xmlns="http://www.w3.org/2000/svg" xmlns:xlink="http://www.w3.org/1999/xlink" x="0px" y="0px" viewBox="0 0 210 210" width="60" height="60"  xml:space="preserve">
<style type="text/css">
    .st0{fill:#FF6D5A;}
</style>
<path class="st0" d="M18.8,18.8C8.4,18.8,0,27.1,0,37.5s8.4,18.8,18.8,18.8s18.8-8.4,18.8-18.8S29.1,18.8,18.8,18.8z M18.8,81.2
    C8.4,81.2,0,89.6,0,100s8.4,18.8,18.8,18.8s18.8-8.4,18.8-18.8S29.1,81.2,18.8,81.2z M18.8,143.8C8.4,143.8,0,152.1,0,162.5
    s8.4,18.8,18.8,18.8s18.8-8.4,18.8-18.8S29.1,143.8,18.8,143.8z M193.8,150h-125c-3.5,0-6.2,2.8-6.2,6.2v12.5c0,3.5,2.8,6.2,6.2,6.2
    h125c3.5,0,6.2-2.8,6.2-6.2v-12.5C200,152.8,197.2,150,193.8,150z M193.8,25h-125c-3.5,0-6.2,2.8-6.2,6.2v12.5
    c0,3.5,2.8,6.2,6.2,6.2h125c3.5,0,6.2-2.8,6.2-6.2V31.2C200,27.8,197.2,25,193.8,25z M193.8,87.5h-125c-3.5,0-6.2,2.8-6.2,6.2v12.5
    c0,3.5,2.8,6.2,6.2,6.2h125c3.5,0,6.2-2.8,6.2-6.2V93.8C200,90.3,197.2,87.5,193.8,87.5z"/>
</svg>
